teeny/solid/bluetooth.svg

<svg width="15" height="15" viewBox="0 0 15 15" fill="none" xmlns="http://www.w3.org/2000/svg">
<path fill-rule="evenodd" clip-rule="evenodd" d="M7.26909 0.0565121C7.43446 -0.0295868 7.63399 -0.0165295 7.78673 0.0903855L12.7867 3.59039C12.9213 3.68457 13.001 3.83884 13 4.00308C12.999 4.16732 12.9174 4.32059 12.7817 4.41312L8.25423 7.5L12.7817 10.5869C12.9174 10.6794 12.999 10.8327 13 10.9969C13.001 11.1612 12.9213 11.3154 12.7867 11.4096L7.78673 14.9096C7.63399 15.0165 7.43446 15.0296 7.26909 14.9435C7.10373 14.8574 7 14.6864 7 14.5V8.35516L1.78167 11.9131L1.21833 11.0869L6.4791 7.5L1.21833 3.91312L1.78167 3.08689L7 6.64484V0.500001C7 0.313564 7.10373 0.142611 7.26909 0.0565121ZM8 8.53698L11.6204 11.0054L8 13.5397V8.53698ZM8 6.46302V1.46033L11.6204 3.99459L8 6.46302Z" fill="black"/>
</svg>

<svg viewBox="0 0 15 15" xmlns="http://www.w3.org/2000/svg"><path fill-rule="evenodd" d="M7.26.05c.16-.09.36-.08.51.03l4.99 3.5c.13.09.21.24.21.41 -.01.16-.09.31-.22.41L8.22 7.48l4.52 3.08c.13.09.21.24.21.41 0 .16-.08.31-.22.41l-5 3.5c-.16.1-.36.12-.52.03 -.17-.09-.27-.26-.27-.45V8.31l-5.22 3.55 -.57-.83 5.26-3.59 -5.27-3.59 .56-.83 5.21 3.55V.42c0-.19.1-.36.26-.45Zm.73 8.48l3.62 2.46 -3.63 2.53V8.51Zm0-2.08V1.44l3.62 2.53 -3.63 2.46Z"/></svg>
